!!!COM: Gaspar van Weerbeke
!!!CDT: ~1450-~1517
!!!OTL: O pulcherrima mulierum
!!!AGN: Motet
!!!SCT: Gas0410
!!!SCA: Gas0410
!!!voices: 4
**kern	**text	**kern	**text	**kern	**text	**kern	**text
*part4	*part4	*part3	*part3	*part2	*part2	*part1	*part1
*staff4	*staff4	*staff3	*staff3	*staff2	*staff2	*staff1	*staff1
*I"Bassus	*	*I"Tenor	*	*I"Altus	*	*I"Superius	*
*I'B	*	*I'T	*	*I'A	*	*I'S	*
*clefF4	*	*clefGv2	*	*clefGv2	*	*clefG2	*
*k[]	*	*k[]	*	*k[]	*	*k[]	*
*M2/2	*	*M2/2	*	*M2/2	*	*M2/2	*
*met(C|)	*	*met(C|)	*	*met(C|)	*	*met(C|)	*
=1	=1	=1	=1	=1	=1	=1	=1
2E	O	2E	O	2e	O	1r	.
2E	pul-	2E	pul-	2e	pul-	.	.
=2	=2	=2	=2	=2	=2	=2	=2
1C	-cher-	4.E	-cher-	2.e	-cher-	1r	.
.	.	8F	.	.	.	.	.
.	.	4G	.	.	.	.	.
.	.	[4A	.	4e	-ri-	.	.
=3	=3	=3	=3	=3	=3	=3	=3
2BB	-ri-	4A]	.	2d	.	1r	.
.	.	4G#i	-ri-	.	.	.	.
2AA	-ma	2A	-ma	2c	-ma	.	.
=4	=4	=4	=4	=4	=4	=4	=4
1E	mu-	1c	mu-	2r	.	1r	.
.	.	.	.	2G	mu-	.	.
=5	=5	=5	=5	=5	=5	=5	=5
2D	-li-	2B	-li-	2F	-li-	1r	.
4C	.	4A	.	4E	.	.	.
[4D	-e-	[4B	-e-	[4F	-e-	.	.
!!LO:LB:g=original
=6	=6	=6	=6	=6	=6	=6	=6
8D]L	.	8B]L	.	8F]L	.	1r	.
8C	.	8A	.	8E	.	.	.
8BB	.	8G#i	.	8D	.	.	.
8AAJ	.	8F#iJ	.	8CJ	.	.	.
2BB	.	2G#i	.	2D	.	.	.
=7	=7	=7	=7	=7	=7	=7	=7
1AA	-rum,	2A	-rum,	2E	-rum,	2e	Sur-
.	.	2E	sur-	2A	sur-	2e	-ge
=8	=8	=8	=8	=8	=8	=8	=8
4.C	sur-	4r	.	4G	-ge	4.e	pro-
.	.	2c	-ge	2E	pro-	.	.
8D	.	.	.	.	.	8f	.
4E	-ge	.	.	.	.	4g	.
4F	pro-	4A	pro-	4d	-pe-	[4a	-pe-
=9	=9	=9	=9	=9	=9	=9	=9
2E	-pe-	2B	-pe-	2e	.	4a]	.
.	.	.	.	.	.	4g#i	.
2F	-ra	2A	-ra	[2c	-ra	2a	-ra
=10	=10	=10	=10	=10	=10	=10	=10
1C	a-	1e	a-	2c]	.	1cc	a-
.	.	.	.	4.G	a-	.	.
.	.	.	.	8A	.	.	.
!!LO:LB:g=original
=11	=11	=11	=11	=11	=11	=11	=11
2G	-mi-	2d	-mi-	8BL	-mi-	2b	-mi-
.	.	.	.	8c	.	.	.
.	.	.	.	8d	.	.	.
.	.	.	.	8eJ	.	.	.
4A	-ca	4c	-ca	4f	-ca	4a	-ca
[4G	me-	[4d	me-	[4g	me-	[4b	me-
=12	=12	=12	=12	=12	=12	=12	=12
4G]	.	8d]L	.	4g]	.	8b]L	.
.	.	8c	.	.	.	8a	.
4A	.	8B	.	2.e	.	8g#i	.
.	.	8AJ	.	.	.	8f#iJ	.
2E	.	2B	.	.	.	2g#i	.
=13	=13	=13	=13	=13	=13	=13	=13
1F	-a,	1A	-a,	1c	-a,	1a	-a,
=14	=14	=14	=14	=14	=14	=14	=14
2E	co-	2c	co-	2e	co-	2r	.
2C	-lum-	2c	-lum-	2e	-lum-	2g	co-
=15	=15	=15	=15	=15	=15	=15	=15
2C	-ba	2c	-ba	2e	-ba	2g	-lum-
2C	me-	2c	me-	2c	me-	2g	-ba
!!LO:LB:g=original
=16	=16	=16	=16	=16	=16	=16	=16
1C	-a,	1c	-a,	2G	-a,	2e	me-
.	.	.	.	4g	for-	2c	-a,
.	.	.	.	[4g	-mo-	.	.
=17	=17	=17	=17	=17	=17	=17	=17
2C	for-	2c	for-	4g]	.	2r	.
.	.	.	.	4g	-sa	.	.
4C	-mo-	[2c	-mo-	2e	me-	2g	for-
8DL	.	.	.	.	.	.	.
8EJ	.	.	.	.	.	.	.
=18	=18	=18	=18	=18	=18	=18	=18
2F	-sa	4c]	.	2c	-a,	2a	-mo-
.	.	4c	-sa	.	.	.	.
2E	me-	2c	me-	4r	.	4g	-sa
*	*	*	*	*	*edit	*	*
.	.	.	.	[4G	for-	[4e	me-
=19	=19	=19	=19	=19	=19	=19	=19
4C	.	2c	-a,	4G]	.	4e]	.
4AA	.	.	.	2A	-mo-	4c	.
*	*	*	*edit	*	*	*	*
2D	.	2d	for-	.	.	2f	.
.	.	.	.	4B	.	.	.
=20	=20	=20	=20	=20	=20	=20	=20
2C	-a;	2.e	-mo-	4c	-sa	4e	.
.	.	.	.	4C	.	4.g	.
2r	.	.	.	4.D	me-	.	.
.	.	.	.	.	.	8a	.
.	.	4c	-sa	.	.	[4cc	.
.	.	.	.	8E	.	.	.
!!LO:PB:g=original
=21	=21	=21	=21	=21	=21	=21	=21
2GG	et	2d	me-	2G	.	4cc]	.
.	.	.	.	.	.	4b	.
2AA	.	2c	-a;	2C	-a;	2cc	-a;
=22	=22	=22	=22	=22	=22	=22	=22
*	*	*	*Xedit	*	*Xedit	*	*
[1AA	ve-	2C	et	2.c	et	2r	.
.	.	[2E	ve-	.	.	2cc	et
.	.	.	.	4d	.	.	.
=23	=23	=23	=23	=23	=23	=23	=23
1AA]	.	2E]	.	2e	ve-	2.cc	ve-
.	.	4.F#i	.	2A	.	.	.
.	.	.	.	.	.	8bL	.
.	.	8E	.	.	.	8aJ	.
=24	=24	=24	=24	=24	=24	=24	=24
1GG;	-ni!	1G;	-ni!	1d;	-ni!	1b;	-ni!
=25	=25	=25	=25	=25	=25	=25	=25
2GG	O-	2d	O-	2g	O-	2b	O-
2C	-sten-	2e	-sten-	2g	-sten-	2cc	-sten-
=26	=26	=26	=26	=26	=26	=26	=26
2C	-de	2c	-de	2e	-de	4cc	-de
.	.	.	.	.	.	4.cc	mi-
2F	mi-	2A	mi-	4c	mi-	.	.
.	.	.	.	.	.	8b	.
.	.	.	.	4d	.	4a	.
!!LO:LB:g=original
=27	=27	=27	=27	=27	=27	=27	=27
4E	-hi	4B	-hi	2e	-hi	2g	-hi
4.C	fa-	2e	fa-	.	.	.	.
.	.	.	.	[2g	fa-	2cc	fa-
8DL	.	.	.	.	.	.	.
8E	.	4e	-ci-	.	.	.	.
8FJ	.	.	.	.	.	.	.
=28	=28	=28	=28	=28	=28	=28	=28
4G	-ci-	2d	-em	4g]	.	2b	-ci-
4D	-em	.	.	2f	-ci-	.	.
4F	tu-	4c	tu-	.	.	4a	-em
[4G	.	4B	.	4d	-em	[4b	tu-
=29	=29	=29	=29	=29	=29	=29	=29
4G]	.	2G	.	4B	tu-	8b]L	.
.	.	.	.	.	.	8aJ	.
4E	.	.	.	4c	.	2g	.
2D	.	2A	.	2d	.	.	.
.	.	.	.	.	.	4f#i	.
=30	=30	=30	=30	=30	=30	=30	=30
2.E	-am,	1G	-am,	2B	-am,	1g	-am,
.	.	.	.	4r	.	.	.
4C	so-	.	.	4c	so-	.	.
=31	=31	=31	=31	=31	=31	=31	=31
2C	-net	2E	so-	4.c	-net	1r	.
.	.	.	.	8B	.	.	.
2C	vox	4.E	-net	2G	.	.	.
.	.	8F	.	.	.	.	.
=32	=32	=32	=32	=32	=32	=32	=32
2C	tu-	2G	vox	4r	.	2e	so-
.	.	.	.	4c	vox	.	.
2AA	-a	4.A	tu-	4.c	tu-	4.e	-net
.	.	8G	.	8d	.	8f	.
!!LO:LB:g=original
=33	=33	=33	=33	=33	=33	=33	=33
4r	.	2E	-a	2e	-a	2g	vox
4E	in	.	.	.	.	.	.
4.F	au-	2r	.	4.c	in	4.a	tu-
8E	.	.	.	8d	.	8g	.
=34	=34	=34	=34	=34	=34	=34	=34
4.C	.	2c	in	8eL	au-	2e	-a
.	.	.	.	8fJ	.	.	.
.	.	.	.	4.g	.	.	.
8D	.	.	.	.	.	.	.
8EL	.	2B	au-	.	.	2r	.
8FJ	.	.	.	8f	.	.	.
[4G	.	.	.	4d	.	.	.
=35	=35	=35	=35	=35	=35	=35	=35
4G]	.	2A	-ri-	4e	-ri-	2cc	in
4F	-ri-	.	.	4f	.	.	.
2G	-bus	2G	-bus	2d	-bus	2b	au-
=36	=36	=36	=36	=36	=36	=36	=36
4r	.	2c	me-	4r	.	2a	-ri-
4F	me-	.	.	4f	me-	.	.
4G	.	4B	.	4d	.	2g	-bus
4E	.	4G	.	4e	.	.	.
=37	=37	=37	=37	=37	=37	=37	=37
2F	.	2A	.	4c	.	4.cc	me-
.	.	.	.	4f	.	.	.
.	.	.	.	.	.	8a	.
4G	.	4.G	.	4d	.	4b	.
[4E	.	.	.	4e	.	[4g	.
.	.	8A	.	.	.	.	.
=38	=38	=38	=38	=38	=38	=38	=38
4E]	.	4B	.	2g	.	4g]	.
4C	.	2c	.	.	.	8fL	.
.	.	.	.	.	.	8eJ	.
2G	-is,	.	.	2g	-is,	2d	.
.	.	4B	.	.	.	.	.
!!LO:LB:g=original
=39	=39	=39	=39	=39	=39	=39	=39
2r	.	2c	-is,	2e	vox	2c	-is,
2E	vox	2r	.	4.c	e-	2r	.
.	.	.	.	8d	.	.	.
=40	=40	=40	=40	=40	=40	=40	=40
4C	e-	1r	.	4e	-nim	1r	.
4D	.	.	.	2f	.	.	.
2E	-nim	.	.	.	.	.	.
.	.	.	.	[4e	tu-	.	.
=41	=41	=41	=41	=41	=41	=41	=41
2F	tu-	1r	.	4e]	.	1r	.
.	.	.	.	4d	.	.	.
2E	-a	.	.	2e	-a	.	.
=42	=42	=42	=42	=42	=42	=42	=42
2A	dul-	1r	.	2f	dul-	1r	.
4G	.	.	.	4e	.	.	.
[4E	.	.	.	[4c	.	.	.
=43	=43	=43	=43	=43	=43	=43	=43
4E]	.	1r	.	8c]L	.	1r	.
.	.	.	.	8BJ	.	.	.
4C	.	.	.	2A	.	.	.
2BB	.	.	.	.	.	.	.
.	.	.	.	4G#i	.	.	.
=44	=44	=44	=44	=44	=44	=44	=44
1AA	-cis,	2E	vox	2A	-cis,	1r	.
.	.	4.C	e-	2r	.	.	.
.	.	8D	.	.	.	.	.
!!LO:PB:g=original
=45	=45	=45	=45	=45	=45	=45	=45
*	*	*	*	*	*edit	*	*
1r	.	2E	-nim	2G	vox	2e	vox
.	.	2F	tu-	4.A	e-	4.c	e-
.	.	.	.	8B	.	8d	.
=46	=46	=46	=46	=46	=46	=46	=46
*	*edit	*	*	*	*	*	*
2C	tu-	2E	-a	2c	-nim	2e	-nim
2D	-a	2A	dul-	4A	tu-	2f	tu-
.	.	.	.	4d	.	.	.
=47	=47	=47	=47	=47	=47	=47	=47
4E	dul-	4G	.	4B	.	2e	-a
4C	.	4E	.	4e	.	.	.
2D	.	2F	.	2d	-a	2a	dul-
=48	=48	=48	=48	=48	=48	=48	=48
4E	.	2E	-cis	4B	dul-	4g	.
4G	.	.	.	4G	.	2e	.
2F	.	2r	.	2A	.	.	.
.	.	.	.	.	.	4d	.
=49	=49	=49	=49	=49	=49	=49	=49
2E	-cis	1r	.	2B	.	2e	-cis
*	*Xedit	*	*	*	*	*	*
4.A	et	.	.	4c	.	2r	.
.	.	.	.	4e	.	.	.
8G	.	.	.	.	.	.	.
=50	=50	=50	=50	=50	=50	=50	=50
2F	fa-	2A	et	4f	.	1r	.
.	.	.	.	4d	.	.	.
2E	-ci-	4B	fa-	2e	-cis,	.	.
.	.	4B	-ci-	.	.	.	.
!!LO:LB:g=original
=51	=51	=51	=51	=51	=51	=51	=51
2AA	-es	4.c	-es	4r	.	2a	et
*	*	*	*	*	*Xedit	*	*
.	.	.	.	4.e	et	.	.
.	.	8B	.	.	.	.	.
4r	.	2G	.	.	.	4b	fa-
.	.	.	.	8f	.	.	.
[4E	tu-	.	.	[4g	fa-	4b	-ci-
=52	=52	=52	=52	=52	=52	=52	=52
4E]	.	2c	tu-	4g]	.	4.cc	-es
4F	.	.	.	4a	.	.	.
.	.	.	.	.	.	8b	.
2G	-a	2B	-a	4d	-ci-	2g	.
.	.	.	.	4g	-es	.	.
=53	=53	=53	=53	=53	=53	=53	=53
2A	de-	4A	de-	4f	tu-	2cc	tu-
.	.	2e	-co-	4e	.	.	.
4E	-co-	.	.	2g	-a	2b	-a
4G	.	4d	.	.	.	.	.
=54	=54	=54	=54	=54	=54	=54	=54
4A	.	4c	.	4f	de-	4a	de-
2G	.	2d	.	4.g	-co-	4.b	-co-
.	.	.	.	8fL	.	8aL	.
[4C	.	4e	.	8e	.	8g	.
.	.	.	.	8dJ	.	8fJ	.
=55	=55	=55	=55	=55	=55	=55	=55
4C]	.	4c	.	4c	.	4e	.
4F	.	4A	.	4d	.	2a	.
2E	.	2B	.	2e	.	.	.
.	.	.	.	.	.	4g#i	.
=56	=56	=56	=56	=56	=56	=56	=56
1AAl	-ra.	1Al	-ra.	1el	-ra.	1al	-ra.
==	==	==	==	==	==	==	==
*-	*-	*-	*-	*-	*-	*-	*-
!!!system-decoration: [*]
!!!RDF**kern: j = editorial accidental, optional, paren up
!!!RDF**kern: i = editorial accidental
!!!RDF**kern: l = terminal breve
!!!PTL: Gaspar van Weerbeke: Collected Works. IV. Motets
!!!ISBN: 978-1-59551-500-1 / 1-59551-500-3
!!!PPR: American Institute of Musicology
!!!PC#: Corpus Mensurabilis Musicae 106/IV
!!!PDT: 2010
!!!PED: Pavanello, Agnese
!!!YEC: Copyright 2008, Pavanello, Agnese
!!!YEM: CC-BY-NC 4.0 (https://creativecommons.org/licenses/by-nc/4.0/legalcode)
!!!EED: Mair-Gruber, Roland
!!!EEV: 2021/08/18
